src/icons/0030_varyingSquares.svg

<svg data-name="Layer 1" xmlns="http://www.w3.org/2000/svg" viewBox="0 0 48 48"><path d="M25 0h23v11H25zm0 39h10v9H25zm0-25h10v22H25zm13 0h10v34H38zM0 0h22v27H0zm0 30h22v18H0z"/></svg>

<svg id="Layer_1" data-name="Layer 1" xmlns="http://www.w3.org/2000/svg" viewBox="0 0 48 48"><title>0030_varyingSquares</title><path d="M25,0H48V11H25Zm0,39H35v9H25Zm0-25H35V36H25Zm13,0H48V48H38ZM0,0H22V27H0ZM0,30H22V48H0Z"/></svg>
